X:187
M:C
L:1/8
K:G Minor
d>fc>f A<GG:|
=e|f>dc>A f>ga>g|g/g/g g>a b>ga>g|f>dc>A f<g a>g|f>dc>A B<G G>=e|
f>dc>A f>ga>f|g/g/g g>a b>ga>g|f>dc>A f>ga>g|f<dc<f A>GG||

